X: 20714
T: BOW-WOW-WOW.
O: Very old English air.
Q: "With spirit."
%R: march
B: W. Hamilton "Universal Tune-Book" Vol. 2 Glasgow 1846 p.71 #4
S: http://s3-eu-west-1.amazonaws.com/itma.dl.printmaterial/book_pdfs/hamiltonvol2web.pdf
Z: 2016 John Chambers <jc:trillian.mit.edu>
M: 2/4
L: 1/8
K: G
% - - - - - - - - - - - - - - - - - - - - - - - - -
(d>c) |\
BGGG | G>FGG | A>ddc | (cB)(AG) |\
(BA)AA | (AG)AA | A<fg>f | (ed)dd |\
dggf | (e>d)cB |
(c>d)ec | (dc)(BA) |\
G>FGA | (cB)(AG) | (E>A)(AG) | (GF)(ED) |\
G2G2 | G2z2 | d2ef | (g<d)dc |\
B2G2 | G2 |]
% - - - - - - - - - - - - - - - - - - - - - - - - -

%%sep 1 1 500
%%sep 1 1 500

